!!!OTL: 1489. Das Schaeferrecht.
!!!ARE: Europa, Mitteleuropa, Deutschland
!!!SCT: E1489
!!!TXL: @@DE
!!!YEM: Copyright 1995, estate of Helmut Schaffrath.
**kern	**text
*ICvox	*
*M4/4	*
*met(c)	*
*k[b-]	*
*F:	*
=1	=1
!LO:TX:a:t=Mel. nach der erhaltenen Baßſtimme hergeſtellt v. B.	!
2r	.
4r	.
{4f	Ach
=2	=2
4f	Schä-
4f	-fer,
4a	will
4a	du
=3	=3
2cc	beu-
4a	-ten,
4r}	.
=4	=4
{2cc	juch-
2ff	-hei
=5	=5
4dd	dir-
4cc	-dumdei!
4b-}	.
{4a	ſo
=6	=6
4b-	treib
4a	wol
4g	in
4a	die
=7	=7
2b-	Sträu-
4g}	-che.
{4a	Juch-
=8	=8
4b-	-hei,
4a	wu-
4g	-chei,
4a	das
=9	=9
4b-	dir-
4cc	-dum-
2dd}	-dei!
=10	=10
{4cc	Ho-
4a	-ſcha
4g	hei-
4g	-a-
=11	=11
1f;}	-ho!
==	==
!!!AGN: Staende - Lied, Hirten -,  Schaefer - Lied
!!!ONB: ESAC (Essen Associative Code) Database: ERK3
!!!AMT: simple quadruple
!!!AIN: vox
!!!EED: Helmut Schaffrath
!!!EEV: 1.0
!!!GTL: Staendelieder (Berufslieder). 3. Hirtenlieder. Schaeferlieder.
!!!URL-scan: https://rosdok.uni-rostock.de/mcrviewer/recordIdentifier/rosdok_ppn745177999/iview2/phys_0347.iview2?x=-128.77276441889285&y=77.76473328610882&scale=0.5870222003877487&rotation=0&layout=singlePageLayout
!!!ENC: Anna Maria Matuszewska
!!!EEV: 2025/03/01
*-	*-
